X:0931
T:Mucking of Geordie's Byre.
M:3/4
L:1/8
Q:3/4=80
I: || ||
Z:Jack Campin * www.campin.me.uk * 2009
K:D % the tonal centre is completely unidentifiable
fe|d2 B2 B2|B3  d`BA|B2 d2 e2|f3 e d2|d3  e (d/e/f)|A4
fe|d2 B2 B2|B3  d`BA|B2 d2 e2|f3 e d2|e3  d  ef    |A4||
ag|f2 a2 b2|a2 f2 e2|d3  e f2|f3 g a2|f2 e2  d2    |A4
fe|d2 B2 B2|B3  d`BA|B2 b2 ag|f3 e d2|e3  d  ef    |A4|]

